!! Anton Webern
!! "Klavierstueck" opus postumous
!! Im Tempo eines Menuetts
**kern
*M3/4
*k[]
*MM60
*X:
=1
(qan
8bb-'
16bb-'
16bb-'
4Bn~
8g#'
8Gn'
=2
(8c#
8ddn)'
4E-~
16r
16F#
16fn
16EEn
=3
8.cccn~
16BB-' 16An'
8.bn~
16GG#' 16Gn'
8.c#~
16E-' 16DDn'
=4
8f#~
(16Fn 16en
16cccn)'
(qaan
8b-~
16Bn'
16G#' 16gn'
16cc#'
16e-' 16ddn'
16F#'
16fn'
=5
*^
(8een	8r
8r	16aan
.	[16b- 16Bn
8GG#	4b- 4Bn]
8Gn)'	.
8.r	4r
16cc#	.
*v	*v
=6
8dddn~
(16E- 16G-
16fn
8.ccn~ 8.een~)
16B-' 16an'
8.G#~ 8.Bn~
16Dn' 16Gn' 16c#'
=7
*^
.	(qddn
16r	16eee-)'
(qFF#	.
16Fn)'	16een'
(qcn	(qaan
16Bn)'	16b-)'
16r	16b-'
2r	8.r
.	(16ggg#'
.	8gn)~
.	16dn' 16cc#'
.	[16ee-' 16gg-'
=8	=8
(8Fn	4ee- 4gg-]
8en)	.
8r	16r
.	(qcccn
.	16aan^
16G#' 16Bn'	16b-'
16gn'	16r
.	(qcccn
16r	16aan^
16G#' 16Bn'	16b-'
16gn'	16r
16r	[16cc#^
!! First ending.
=9	=9
8r	16cc#]
.	16r
(8Dn	8r
6ee-)'	4r
6g-~	.
.	4cn 4en
6F~	.
=	=
!! Excerpt only.
*-	*-
